Newaita-dark/apps/48/preferences-desktop-peripherals.svg

<svg height="48pt" viewBox="0 0 48 48" width="48pt" xmlns="http://www.w3.org/2000/svg" xmlns:xlink="http://www.w3.org/1999/xlink"><linearGradient id="a"><stop offset="0" stop-opacity=".313725"/><stop offset=".222222" stop-opacity=".27451"/><stop offset="1" stop-opacity="0"/></linearGradient><radialGradient id="b" cx="450.908936" cy="189.579361" gradientTransform="matrix(.00000026 -.117199 -.210958 -.00000015 66.784728 95.392994)" gradientUnits="userSpaceOnUse" r="21.166656" xlink:href="#a"/><radialGradient id="c" cx="450.908936" cy="189.579361" gradientTransform="matrix(-.00000026 .117199 .210958 .00000015 -19.155178 -11.291223)" gradientUnits="userSpaceOnUse" r="21.166656" xlink:href="#a"/><radialGradient id="d" cx="450.908936" cy="189.579361" gradientTransform="matrix(-.00000026 -.117199 .210958 -.00000015 -19.155178 95.392994)" gradientUnits="userSpaceOnUse" r="21.166656" xlink:href="#a"/><radialGradient id="e" cx="450.908936" cy="189.579361" gradientTransform="matrix(.00000026 .117199 -.210958 .00000015 66.784725 -11.291224)" gradientUnits="userSpaceOnUse" r="21.166656" xlink:href="#a"/><linearGradient id="f" gradientTransform="matrix(.0200401 0 0 .093759 18.698079 20.158175)" gradientUnits="userSpaceOnUse" x1="255.323059" x2="255.323044" y1="233.5" y2="254.666656"><stop offset="0" stop-opacity=".27451"/><stop offset="1" stop-opacity="0"/></linearGradient><linearGradient id="g" gradientUnits="userSpaceOnUse" x1="23.814786" x2="23.814786" y1="18.23611468752" y2="42.0509005"><stop offset="0" stop-color="#616161"/><stop offset="1" stop-color="#424242"/></linearGradient><linearGradient id="h" gradientUnits="userSpaceOnUse" x1="23.814816" x2="23.814816" y1="18.23614829293" y2="4.34417306195"><stop offset="0" stop-color="#616161"/><stop offset="1" stop-color="#757575"/></linearGradient><linearGradient id="i" gradientUnits="userSpaceOnUse" x1="254" x2="254" y1="21.833332" y2="-84"><stop offset="0" stop-color="#616161"/><stop offset="1" stop-color="#9e9e9e"/></linearGradient><path d="m211.646455-168.671091h84.700245c58.452752 0 105.823228 47.370476 105.823228 105.823228v190.523472c0 58.452752-47.370476 105.823228-105.823228 105.823228h-84.700245c-58.411088 0-105.823227-47.370476-105.823227-105.823228v-190.523472c0-58.452752 47.412139-105.823228 105.823227-105.823228zm0 0" fill="#fbc02d" stroke="#212121" stroke-linecap="square" stroke-linejoin="round" stroke-width="3" transform="matrix(.093759 0 0 .093759 0 20.158175)"/><path d="m27.289062 42.050781h3.96875v-1.984375h-3.96875zm0 0" fill="url(#b)"/><path d="m20.339844 42.050781h-3.96875v1.984375h3.96875zm0 0" fill="url(#c)"/><path d="m20.339844 42.050781h-3.96875v-1.984375h3.96875zm0 0" fill="url(#d)"/><path d="m27.289062 42.050781h3.96875v1.984375h-3.96875zm0 0" fill="url(#e)"/><path d="m20.339844 41.554688h6.949218v2.480468h-6.949218zm0 0" fill="url(#f)"/><path d="m19.84375 4.34375c-5.496094 0-9.921875 4.425781-9.921875 9.921875v5.953125c1.101563 0 1.984375.886719 1.984375 1.988281v9.921875c0 1.03125-.78125 1.875-1.789062 1.972656.910156 4.546876 4.90625 7.949219 9.726562 7.949219h7.941406c4.820313 0 8.816406-3.402343 9.726563-7.949219-1.007813-.097656-1.789063-.941406-1.789063-1.972656v-9.921875c0-1.101562.882813-1.988281 1.984375-1.988281v-5.953125c0-5.496094-4.425781-9.921875-9.921875-9.921875zm0 0" fill="url(#g)"/><path d="m19.84375 4.34375c-5.496094 0-9.921875 4.425781-9.921875 9.921875v3.96875h27.785156v-3.96875c0-5.496094-4.425781-9.921875-9.921875-9.921875zm0 0" fill="url(#h)"/><path d="m19.84375 4.34375c-5.496094 0-9.921875 4.425781-9.921875 9.921875v3.96875h13.894531v-13.890625zm0 0" fill="url(#h)"/><path d="m24.0625 4.34375v13.890625h-.246094v-13.890625zm0 0" fill-opacity=".196078"/><path d="m23.816406 4.34375v13.890625h-.25v-13.890625zm0 0" fill="#e6e6e6" fill-opacity=".588235"/><path d="m23.9375 4.34375v13.890625h-.246094v-13.890625zm0 0" fill="#212121" fill-opacity=".992157"/><path d="m9.921875 17.988281h27.785156v.246094h-27.785156zm0 0" fill-opacity=".196078"/><path d="m9.921875 18.234375h27.785156v.25h-27.785156zm0 0" fill="#e6e6e6" fill-opacity=".588235"/><path d="m9.921875 18.113281h27.785156v.246094h-27.785156zm0 0" fill="#212121" fill-opacity=".992157"/><path d="m254.017409-84.012509c11.665553 0 21.164646 4.749547 21.164646 10.582323v84.700245c0 5.832776-9.499093 10.582323-21.164646 10.582323-11.707215 0-21.164645-4.749547-21.164645-10.582323v-84.700245c0-5.832776 9.45743-10.582323 21.164645-10.582323zm0 0" fill="url(#i)" stroke="#212121" stroke-linecap="square" stroke-linejoin="round" stroke-width="3" transform="matrix(.093759 0 0 .093759 0 20.158175)"/><path d="m274.390464 154.548043c-2.708075 9.624081-11.790541 16.040135-21.747923 15.415195-9.999046-.666603-18.164932-8.20755-19.581464-18.123269-1.416531-9.91572 4.291257-19.456476 13.665362-22.872816 9.415767-3.458003 19.914765.166651 25.247589 8.665839l-17.956619 11.207263zm0 0" fill="#fbc02d" stroke="#212121" stroke-linecap="square" stroke-linejoin="round" stroke-width="3" transform="matrix(.093759 0 0 .093759 0 20.158175)"/><path d="m19.84375 4.210938c-5.496094 0-9.921875 4.425781-9.921875 9.921874v.496094c0-5.496094 4.425781-9.921875 9.921875-9.921875h7.941406c5.496094 0 9.921875 4.425781 9.921875 9.921875v-.496094c0-5.496093-4.425781-9.921874-9.921875-9.921874zm-7.9375 27.785156c0 1.03125-.78125 1.875-1.789062 1.972656.035156.164062.070312.324219.109374.484375.953126-.144531 1.679688-.964844 1.679688-1.960937zm23.816406 0v.496094c0 .996093.726563 1.816406 1.679688 1.960937.039062-.160156.078125-.320313.109375-.484375-1.007813-.097656-1.789063-.941406-1.789063-1.972656zm0 0" fill="#fff" fill-opacity=".313725"/><path d="m10.109375 19.859375v.488281c1.097656 0 1.984375.886719 1.984375 1.984375v-.488281c0-1.097656-.886719-1.984375-1.984375-1.984375zm27.78125 0c-1.097656 0-1.984375.886719-1.984375 1.984375v.488281c0-1.097656.886719-1.984375 1.984375-1.984375zm-27.480469 14.355469c-.035156.007812-.070312.011718-.109375.015625.914063 4.542969 4.910157 7.949219 9.730469 7.949219h7.9375c4.820312 0 8.816406-3.40625 9.726562-7.949219-.035156-.003907-.070312-.007813-.105468-.015625-1.085938 4.308594-4.96875 7.476562-9.621094 7.476562h-7.9375c-4.652344 0-8.535156-3.167968-9.621094-7.476562zm0 0" fill-opacity=".313725"/><path d="m19.84375 4.203125c-5.570312 0-10.0625 4.492187-10.0625 10.0625v5.953125c0 .078125.0625.140625.140625.140625 1.023437 0 1.84375.820313 1.84375 1.847656v9.921875c0 .960938-.722656 1.742188-1.660156 1.835938-.039063.003906-.078125.023437-.101563.054687-.023437.03125-.03125.070313-.023437.109375.921875 4.609375 4.976562 8.0625 9.863281 8.0625h7.941406c4.886719 0 8.941406-3.453125 9.863282-8.0625.007812-.039062 0-.078125-.023438-.109375s-.058594-.050781-.101562-.054687c-.933594-.09375-1.660157-.875-1.660157-1.835938v-9.921875c0-1.027343.820313-1.847656 1.84375-1.847656.078125 0 .140625-.0625.140625-.140625v-5.953125c0-5.570313-4.492187-10.0625-10.0625-10.0625zm0 .28125h7.941406c5.421875 0 9.78125 4.359375 9.78125 9.78125v5.820313c-1.109375.074218-1.984375.992187-1.984375 2.121093v9.921875c0 1.050782.757813 1.917969 1.757813 2.089844-.953125 4.410156-4.851563 7.691406-9.554688 7.691406h-7.941406c-4.699219 0-8.601562-3.28125-9.554688-7.691406 1-.171875 1.757813-1.039062 1.757813-2.089844v-9.921875c0-1.128906-.875-2.046875-1.984375-2.121093v-5.820313c0-5.421875 4.363281-9.78125 9.78125-9.78125zm0 0" fill="#212121"/></svg>

<?xml version="1.0" encoding="UTF-8"?>
<svg xmlns="http://www.w3.org/2000/svg" xmlns:xlink="http://www.w3.org/1999/xlink" width="48pt" height="48pt" viewBox="0 0 48 48" version="1.1">
<defs>
<radialGradient id="radial0" gradientUnits="userSpaceOnUse" cx="450.908936" cy="189.579361" fx="450.908936" fy="189.579361" r="21.166656" gradientTransform="matrix(0.000000261256,-0.117199,-0.210958,-0.000000152308,66.784728,95.392994)">
<stop offset="0" style="stop-color:rgb(0%,0%,0%);stop-opacity:0.313725;"/>
<stop offset="0.222222" style="stop-color:rgb(0%,0%,0%);stop-opacity:0.27451;"/>
<stop offset="1" style="stop-color:rgb(0%,0%,0%);stop-opacity:0;"/>
</radialGradient>
<radialGradient id="radial1" gradientUnits="userSpaceOnUse" cx="450.908936" cy="189.579361" fx="450.908936" fy="189.579361" r="21.166656" gradientTransform="matrix(-0.000000261256,0.117199,0.210958,0.000000152308,-19.155178,-11.291223)">
<stop offset="0" style="stop-color:rgb(0%,0%,0%);stop-opacity:0.313725;"/>
<stop offset="0.222222" style="stop-color:rgb(0%,0%,0%);stop-opacity:0.27451;"/>
<stop offset="1" style="stop-color:rgb(0%,0%,0%);stop-opacity:0;"/>
</radialGradient>
<radialGradient id="radial2" gradientUnits="userSpaceOnUse" cx="450.908936" cy="189.579361" fx="450.908936" fy="189.579361" r="21.166656" gradientTransform="matrix(-0.000000261256,-0.117199,0.210958,-0.000000152308,-19.155178,95.392994)">
<stop offset="0" style="stop-color:rgb(0%,0%,0%);stop-opacity:0.313725;"/>
<stop offset="0.222222" style="stop-color:rgb(0%,0%,0%);stop-opacity:0.27451;"/>
<stop offset="1" style="stop-color:rgb(0%,0%,0%);stop-opacity:0;"/>
</radialGradient>
<radialGradient id="radial3" gradientUnits="userSpaceOnUse" cx="450.908936" cy="189.579361" fx="450.908936" fy="189.579361" r="21.166656" gradientTransform="matrix(0.000000261256,0.117199,-0.210958,0.000000152308,66.784725,-11.291224)">
<stop offset="0" style="stop-color:rgb(0%,0%,0%);stop-opacity:0.313725;"/>
<stop offset="0.222222" style="stop-color:rgb(0%,0%,0%);stop-opacity:0.27451;"/>
<stop offset="1" style="stop-color:rgb(0%,0%,0%);stop-opacity:0;"/>
</radialGradient>
<linearGradient id="linear0" gradientUnits="userSpaceOnUse" x1="255.323059" y1="233.5" x2="255.323044" y2="254.666656" gradientTransform="matrix(0.0200401,0,0,0.093759,18.698079,20.158175)">
<stop offset="0" style="stop-color:rgb(0%,0%,0%);stop-opacity:0.27451;"/>
<stop offset="1" style="stop-color:rgb(0%,0%,0%);stop-opacity:0;"/>
</linearGradient>
<linearGradient id="linear1" gradientUnits="userSpaceOnUse" x1="254" y1="-20.499998" x2="254" y2="233.5" gradientTransform="matrix(0.093759,0,0,0.093759,0,20.158174)">
<stop offset="0" style="stop-color:rgb(38.039216%,38.039216%,38.039216%);stop-opacity:1;"/>
<stop offset="1" style="stop-color:rgb(25.882353%,25.882353%,25.882353%);stop-opacity:1;"/>
</linearGradient>
<linearGradient id="linear2" gradientUnits="userSpaceOnUse" x1="960" y1="735.118103" x2="960" y2="175.118134" gradientTransform="matrix(0.0248071,0,0,0.0248071,0,0)">
<stop offset="0" style="stop-color:rgb(38.039216%,38.039216%,38.039216%);stop-opacity:1;"/>
<stop offset="1" style="stop-color:rgb(45.882353%,45.882353%,45.882353%);stop-opacity:1;"/>
</linearGradient>
<linearGradient id="linear3" gradientUnits="userSpaceOnUse" x1="960" y1="735.118103" x2="960" y2="175.118134" gradientTransform="matrix(0.0248071,0,0,0.0248071,0,0)">
<stop offset="0" style="stop-color:rgb(38.039216%,38.039216%,38.039216%);stop-opacity:1;"/>
<stop offset="1" style="stop-color:rgb(45.882353%,45.882353%,45.882353%);stop-opacity:1;"/>
</linearGradient>
<linearGradient id="linear4" gradientUnits="userSpaceOnUse" x1="254" y1="64.166664" x2="254" y2="-41.666668" gradientTransform="matrix(1,0,0,1,0,-42.333332)">
<stop offset="0" style="stop-color:rgb(38.039216%,38.039216%,38.039216%);stop-opacity:1;"/>
<stop offset="1" style="stop-color:rgb(61.960784%,61.960784%,61.960784%);stop-opacity:1;"/>
</linearGradient>
</defs>
<g id="surface1">
<path style="fill-rule:nonzero;fill:rgb(98.431373%,75.294118%,17.647059%);fill-opacity:1;stroke-width:3;stroke-linecap:square;stroke-linejoin:round;stroke:rgb(12.941177%,12.941177%,12.941177%);stroke-opacity:1;stroke-miterlimit:4;" d="M 211.646455 -168.671091 L 296.3467 -168.671091 C 354.799452 -168.671091 402.169928 -121.300615 402.169928 -62.847863 L 402.169928 127.675609 C 402.169928 186.128361 354.799452 233.498837 296.3467 233.498837 L 211.646455 233.498837 C 153.235367 233.498837 105.823228 186.128361 105.823228 127.675609 L 105.823228 -62.847863 C 105.823228 -121.300615 153.235367 -168.671091 211.646455 -168.671091 Z M 211.646455 -168.671091 " transform="matrix(0.093759,0,0,0.093759,0,20.158175)"/>
<path style=" stroke:none;fill-rule:nonzero;fill:url(#radial0);" d="M 27.289062 42.050781 L 31.257812 42.050781 L 31.257812 40.066406 L 27.289062 40.066406 Z M 27.289062 42.050781 "/>
<path style=" stroke:none;fill-rule:nonzero;fill:url(#radial1);" d="M 20.339844 42.050781 L 16.371094 42.050781 L 16.371094 44.035156 L 20.339844 44.035156 Z M 20.339844 42.050781 "/>
<path style=" stroke:none;fill-rule:nonzero;fill:url(#radial2);" d="M 20.339844 42.050781 L 16.371094 42.050781 L 16.371094 40.066406 L 20.339844 40.066406 Z M 20.339844 42.050781 "/>
<path style=" stroke:none;fill-rule:nonzero;fill:url(#radial3);" d="M 27.289062 42.050781 L 31.257812 42.050781 L 31.257812 44.035156 L 27.289062 44.035156 Z M 27.289062 42.050781 "/>
<path style=" stroke:none;fill-rule:nonzero;fill:url(#linear0);" d="M 20.339844 41.554688 L 27.289062 41.554688 L 27.289062 44.035156 L 20.339844 44.035156 Z M 20.339844 41.554688 "/>
<path style=" stroke:none;fill-rule:nonzero;fill:url(#linear1);" d="M 19.84375 4.34375 C 14.347656 4.34375 9.921875 8.769531 9.921875 14.265625 L 9.921875 20.21875 C 11.023438 20.21875 11.90625 21.105469 11.90625 22.207031 L 11.90625 32.128906 C 11.90625 33.160156 11.125 34.003906 10.117188 34.101562 C 11.027344 38.648438 15.023438 42.050781 19.84375 42.050781 L 27.785156 42.050781 C 32.605469 42.050781 36.601562 38.648438 37.511719 34.101562 C 36.503906 34.003906 35.722656 33.160156 35.722656 32.128906 L 35.722656 22.207031 C 35.722656 21.105469 36.605469 20.21875 37.707031 20.21875 L 37.707031 14.265625 C 37.707031 8.769531 33.28125 4.34375 27.785156 4.34375 Z M 19.84375 4.34375 "/>
<path style=" stroke:none;fill-rule:nonzero;fill:url(#linear2);" d="M 19.84375 4.34375 C 14.347656 4.34375 9.921875 8.769531 9.921875 14.265625 L 9.921875 18.234375 L 37.707031 18.234375 L 37.707031 14.265625 C 37.707031 8.769531 33.28125 4.34375 27.785156 4.34375 Z M 19.84375 4.34375 "/>
<path style=" stroke:none;fill-rule:nonzero;fill:url(#linear3);" d="M 19.84375 4.34375 C 14.347656 4.34375 9.921875 8.769531 9.921875 14.265625 L 9.921875 18.234375 L 23.816406 18.234375 L 23.816406 4.34375 Z M 19.84375 4.34375 "/>
<path style=" stroke:none;fill-rule:nonzero;fill:rgb(0%,0%,0%);fill-opacity:0.196078;" d="M 24.0625 4.34375 L 24.0625 18.234375 L 23.816406 18.234375 L 23.816406 4.34375 Z M 24.0625 4.34375 "/>
<path style=" stroke:none;fill-rule:nonzero;fill:rgb(90.196079%,90.196079%,90.196079%);fill-opacity:0.588235;" d="M 23.816406 4.34375 L 23.816406 18.234375 L 23.566406 18.234375 L 23.566406 4.34375 Z M 23.816406 4.34375 "/>
<path style=" stroke:none;fill-rule:nonzero;fill:rgb(12.941177%,12.941177%,12.941177%);fill-opacity:0.992157;" d="M 23.9375 4.34375 L 23.9375 18.234375 L 23.691406 18.234375 L 23.691406 4.34375 Z M 23.9375 4.34375 "/>
<path style=" stroke:none;fill-rule:nonzero;fill:rgb(0%,0%,0%);fill-opacity:0.196078;" d="M 9.921875 17.988281 L 37.707031 17.988281 L 37.707031 18.234375 L 9.921875 18.234375 Z M 9.921875 17.988281 "/>
<path style=" stroke:none;fill-rule:nonzero;fill:rgb(90.196079%,90.196079%,90.196079%);fill-opacity:0.588235;" d="M 9.921875 18.234375 L 37.707031 18.234375 L 37.707031 18.484375 L 9.921875 18.484375 Z M 9.921875 18.234375 "/>
<path style=" stroke:none;fill-rule:nonzero;fill:rgb(12.941177%,12.941177%,12.941177%);fill-opacity:0.992157;" d="M 9.921875 18.113281 L 37.707031 18.113281 L 37.707031 18.359375 L 9.921875 18.359375 Z M 9.921875 18.113281 "/>
<path style="fill-rule:nonzero;fill:url(#linear4);stroke-width:3;stroke-linecap:square;stroke-linejoin:round;stroke:rgb(12.941177%,12.941177%,12.941177%);stroke-opacity:1;stroke-miterlimit:4;" d="M 254.017409 -84.012509 C 265.682962 -84.012509 275.182055 -79.262962 275.182055 -73.430186 L 275.182055 11.270059 C 275.182055 17.102835 265.682962 21.852382 254.017409 21.852382 C 242.310194 21.852382 232.852764 17.102835 232.852764 11.270059 L 232.852764 -73.430186 C 232.852764 -79.262962 242.310194 -84.012509 254.017409 -84.012509 Z M 254.017409 -84.012509 " transform="matrix(0.093759,0,0,0.093759,0,20.158175)"/>
<path style="fill-rule:nonzero;fill:rgb(98.431373%,75.294118%,17.647059%);fill-opacity:1;stroke-width:3;stroke-linecap:square;stroke-linejoin:round;stroke:rgb(12.941177%,12.941177%,12.941177%);stroke-opacity:1;stroke-miterlimit:4;" d="M 274.390464 154.548043 C 271.682389 164.172124 262.599923 170.588178 252.642541 169.963238 C 242.643495 169.296635 234.477609 161.755688 233.061077 151.839969 C 231.644546 141.924249 237.352334 132.383493 246.726439 128.967153 C 256.142206 125.50915 266.641204 129.133804 271.974028 137.632992 L 254.017409 148.840255 Z M 274.390464 154.548043 " transform="matrix(0.093759,0,0,0.093759,0,20.158175)"/>
<path style=" stroke:none;fill-rule:nonzero;fill:rgb(100%,100%,100%);fill-opacity:0.313725;" d="M 19.84375 4.210938 C 14.347656 4.210938 9.921875 8.636719 9.921875 14.132812 L 9.921875 14.628906 C 9.921875 9.132812 14.347656 4.707031 19.84375 4.707031 L 27.785156 4.707031 C 33.28125 4.707031 37.707031 9.132812 37.707031 14.628906 L 37.707031 14.132812 C 37.707031 8.636719 33.28125 4.210938 27.785156 4.210938 Z M 11.90625 31.996094 C 11.90625 33.027344 11.125 33.871094 10.117188 33.96875 C 10.152344 34.132812 10.1875 34.292969 10.226562 34.453125 C 11.179688 34.308594 11.90625 33.488281 11.90625 32.492188 Z M 35.722656 31.996094 L 35.722656 32.492188 C 35.722656 33.488281 36.449219 34.308594 37.402344 34.453125 C 37.441406 34.292969 37.480469 34.132812 37.511719 33.96875 C 36.503906 33.871094 35.722656 33.027344 35.722656 31.996094 Z M 35.722656 31.996094 "/>
<path style=" stroke:none;fill-rule:nonzero;fill:rgb(0%,0%,0%);fill-opacity:0.313725;" d="M 10.109375 19.859375 L 10.109375 20.347656 C 11.207031 20.347656 12.09375 21.234375 12.09375 22.332031 L 12.09375 21.84375 C 12.09375 20.746094 11.207031 19.859375 10.109375 19.859375 Z M 37.890625 19.859375 C 36.792969 19.859375 35.90625 20.746094 35.90625 21.84375 L 35.90625 22.332031 C 35.90625 21.234375 36.792969 20.347656 37.890625 20.347656 Z M 10.410156 34.214844 C 10.375 34.222656 10.339844 34.226562 10.300781 34.230469 C 11.214844 38.773438 15.210938 42.179688 20.03125 42.179688 L 27.96875 42.179688 C 32.789062 42.179688 36.785156 38.773438 37.695312 34.230469 C 37.660156 34.226562 37.625 34.222656 37.589844 34.214844 C 36.503906 38.523438 32.621094 41.691406 27.96875 41.691406 L 20.03125 41.691406 C 15.378906 41.691406 11.496094 38.523438 10.410156 34.214844 Z M 10.410156 34.214844 "/>
<path style=" stroke:none;fill-rule:nonzero;fill:rgb(12.941177%,12.941177%,12.941177%);fill-opacity:1;" d="M 19.84375 4.203125 C 14.273438 4.203125 9.78125 8.695312 9.78125 14.265625 L 9.78125 20.21875 C 9.78125 20.296875 9.84375 20.359375 9.921875 20.359375 C 10.945312 20.359375 11.765625 21.179688 11.765625 22.207031 L 11.765625 32.128906 C 11.765625 33.089844 11.042969 33.871094 10.105469 33.964844 C 10.066406 33.96875 10.027344 33.988281 10.003906 34.019531 C 9.980469 34.050781 9.972656 34.089844 9.980469 34.128906 C 10.902344 38.738281 14.957031 42.191406 19.84375 42.191406 L 27.785156 42.191406 C 32.671875 42.191406 36.726562 38.738281 37.648438 34.128906 C 37.65625 34.089844 37.648438 34.050781 37.625 34.019531 C 37.601562 33.988281 37.566406 33.96875 37.523438 33.964844 C 36.589844 33.871094 35.863281 33.089844 35.863281 32.128906 L 35.863281 22.207031 C 35.863281 21.179688 36.683594 20.359375 37.707031 20.359375 C 37.785156 20.359375 37.847656 20.296875 37.847656 20.21875 L 37.847656 14.265625 C 37.847656 8.695312 33.355469 4.203125 27.785156 4.203125 Z M 19.84375 4.484375 L 27.785156 4.484375 C 33.207031 4.484375 37.566406 8.84375 37.566406 14.265625 L 37.566406 20.085938 C 36.457031 20.160156 35.582031 21.078125 35.582031 22.207031 L 35.582031 32.128906 C 35.582031 33.179688 36.339844 34.046875 37.339844 34.21875 C 36.386719 38.628906 32.488281 41.910156 27.785156 41.910156 L 19.84375 41.910156 C 15.144531 41.910156 11.242188 38.628906 10.289062 34.21875 C 11.289062 34.046875 12.046875 33.179688 12.046875 32.128906 L 12.046875 22.207031 C 12.046875 21.078125 11.171875 20.160156 10.0625 20.085938 L 10.0625 14.265625 C 10.0625 8.84375 14.425781 4.484375 19.84375 4.484375 Z M 19.84375 4.484375 "/>
</g>
</svg>
